src/plus-round.svg

<?xml version="1.0" encoding="utf-8"?>
<!-- Generated by IcoMoon.io -->
<!DOCTYPE svg PUBLIC "-//W3C//DTD SVG 1.1//EN" "http://www.w3.org/Graphics/SVG/1.1/DTD/svg11.dtd">
<svg version="1.1" xmlns="http://www.w3.org/2000/svg" xmlns:xlink="http://www.w3.org/1999/xlink" width="512" height="512" viewBox="0 0 512 512">
<path fill="#000000" d="M417.4 224h-129.4v-129.4c0-16.9-14.3-30.6-32-30.6s-32 13.7-32 30.6v129.4h-129.4c-16.9 0-30.6 14.3-30.6 32s13.7 32 30.6 32h129.4v129.4c0 16.9 14.3 30.6 32 30.6s32-13.7 32-30.6v-129.4h129.4c16.9 0 30.6-14.3 30.6-32s-13.7-32-30.6-32z"></path>
</svg>

<?xml version="1.0" encoding="utf-8"?>
<!-- Generator: Adobe Illustrator 16.2.1, SVG Export Plug-In . SVG Version: 6.00 Build 0)  -->
<!DOCTYPE svg PUBLIC "-//W3C//DTD SVG 1.1//EN" "http://www.w3.org/Graphics/SVG/1.1/DTD/svg11.dtd">
<svg version="1.1" id="Layer_1" xmlns="http://www.w3.org/2000/svg" xmlns:xlink="http://www.w3.org/1999/xlink" x="0px" y="0px"
	 width="512px" height="512px" viewBox="0 0 512 512" style="enable-background:new 0 0 512 512;" xml:space="preserve">
<path d="M417.4,224H288V94.6c0-16.9-14.3-30.6-32-30.6c-17.7,0-32,13.7-32,30.6V224H94.6C77.7,224,64,238.3,64,256
	c0,17.7,13.7,32,30.6,32H224v129.4c0,16.9,14.3,30.6,32,30.6c17.7,0,32-13.7,32-30.6V288h129.4c16.9,0,30.6-14.3,30.6-32
	C448,238.3,434.3,224,417.4,224z"/>
</svg>
